X:16
T:KITTY OF OULART -- JIG.
R:jig
B:Coles pg. 75.8
Z:John B. Walsh, <walsh:mat:h.ubc.ca> 5/17/02
M:6/8
L:1/8
K:F
(uA/B/)|(kvc2.F) AGF | (c2.F) AGF | (">fz"d2.B) (c2.A) | G"4"AG GAB|
(kvc2.F) AGF | (">fz"c2.F) AGF | (">fz"d2.B) (c2.A)|FGF F2:|
uc|vfef gab|agf edc|dfd cBA|(G2.G) (G2.c)|
fef gab|agf edc|dfd cAc|(F2 .F) F2:|
